src/svg/chart-up.svg

<?xml version="1.0" encoding="UTF-8"?><svg id="_イヤー_2" xmlns="http://www.w3.org/2000/svg" viewBox="0 0 591.02334 591.02334"><defs><style>.cls-1{fill:#040000;}</style></defs><path class="cls-1" d="M515.36465,190.90773v103.16449c0,15.55005-12.60571,28.15601-28.15588,28.15601h-.00012c-15.55005,0-28.15588-12.60596-28.15588-28.15601v-39.87054l-151.3606,151.36053c-.15674,.16443-.30774,.33228-.46936,.49365v.00012c-.70752,.70752-1.44434,1.3678-2.20483,1.98425-11.05981,9.07715-27.41687,8.45288-37.74609-1.87622h0c-.73438-.73438-1.41577-1.50122-2.05212-2.29248l-75.33801-75.33813-64.39734,64.39722c-10.99554,10.99561-28.82288,10.99561-39.81848,0h-.00006c-10.99554-10.99561-10.99554-28.82288,0-39.81848l84.31793-84.31787c10.99554-10.99561,28.82294-10.99561,39.81848,0h.00006c.15015,.15015,.29034,.3064,.4364,.45905l77.06268,77.06256,130.5249-130.52496h-36.67944c-15.55005,0-28.15601-12.60583-28.15601-28.15594v-.00006c0-15.55011,12.60596-28.15594,28.15601-28.15594h106.25732c15.55005,0,28.15601,12.60583,28.15601,28.15594v.00006c0,1.10773-.07104,2.19843-.19556,3.27277Z"/></svg>

<svg id="レイヤー_2" data-name="レイヤー 2" xmlns="http://www.w3.org/2000/svg" viewBox="0 0 591.02 591.02"><defs><style>.cls-1{fill:#040000;}</style></defs><path class="cls-1" d="M515.36,190.91V294.07a28.15,28.15,0,0,1-28.15,28.16h0a28.16,28.16,0,0,1-28.16-28.16V254.2L307.69,405.56c-.15.17-.31.33-.47.5h0a29.34,29.34,0,0,1-2.2,2,28.16,28.16,0,0,1-37.75-1.88h0a29.43,29.43,0,0,1-2-2.29l-75.34-75.34-64.4,64.4a28.14,28.14,0,0,1-39.81,0h0a28.15,28.15,0,0,1,0-39.82L170,268.79a28.17,28.17,0,0,1,39.82,0h0l.44.46,77.06,77.07L417.83,215.79H381.15A28.16,28.16,0,0,1,353,187.63h0a28.15,28.15,0,0,1,28.16-28.15H487.4a28.15,28.15,0,0,1,28.16,28.15h0A27.38,27.38,0,0,1,515.36,190.91Z"/></svg>
